X: 1659
T: The Handy Man
M:2/4
L:1/16
B:O'Neill's 1659
K:Bb
F2 \
| B2Bc d2cB | Bdfg f2d-f | bfdf gfdB | cBcd cedc |
| B2Bc d2cB | Bdfg f2d-f | gbfd cBcd | B2d2B2 :|
|: B-A \
| G2{A}-G^F G2{A}-G^F | G=FGA B2Bc | d2{e}-d^c d2{e}-d^c | d=cBd f2B-d |
| fgfd f2df | gag^f g2 bg | fdBd cedc | B2d2B2 :|


